X: 1
T:Karen MacFadyen
M:6/8
L:1/8
Q:80
C:Iain MacFadyen
S:March
K:HP
|: e|
{g}A3/2{d}c/2e{gef}e3/2c/2{d}A|
{g}f3/2a/2d{gef}e3/2c/2{d}A|
{g}A3/2{d}c/2e{gef}e3/2c/2{d}A|  !
{g}B3{GdGe}B2e{g}A3/2{d}c/2e{gef}e3/2c/2{d}A|
{g}f3/2a/2d{gef}e3/2c/2{d}A|
{g}c3/2d/2e{gde}d3/2B/2{d}G|  !
{g}A3{GAG}A2:| |:
{gf}g|
a3/2g/2a{ef}e3/2c/2{d}A|  !
{g}f3/2a/2d{gef}e3/2c/2{d}A|
{g}A3/2{d}c/2e{gef}e3/2c/2{d}A|
{g}B3{GdGe}B2{gf}ga3/2g/2a{ef}e3/2c/2{d}A|  !
{g}f3/2a/2d{gef}e3/2c/2{d}A|
{g}c3/2d/2e{gde}d3/2B/2{d}G|
{g}A3{GAG}A2:| |:  !
e|
{gAGAG}A2{d}c{g}c/2e3/2{A}e|
{g}d3/2f/2a{ef}e3/2c/2{d}A|
{g}A3/2c/2{A}c{g}c/2e3/2c|  !
{g}B3{GdGe}B2e{gAGAG}A2{d}c{g}c/2e3/2{A}e|
{g}d3/2f/2a{ef}e3/2c/2{d}A|
{g}c3/2d/2e{gde}d3/2B/2{d}G|  !
{g}A3{GAG}A2:| |:
{gf}g|
a2{GdG}aA3/2{d}c/2f|  !
a3/2d/2f{gef}e3/2c/2{d}A|
{g}f3/2a/2d{gef}e3/2c/2{d}A|
{g}B3{GdGe}B2|1 {gf}g|2 e|1 a2{GdG}aA3/2{d}c/2f|  !
a3/2d/2f{gef}e3/2c/2{d}A|
{g}c3/2d/2e{gde}d3/2B/2{d}G|
{g}A3{GAG}A2:|  !
